!!!!SEGMENT: pl-gd--ee-2628--005-005_stabile-annibale--il-primo-libro-de-madrigali-a-cinque-voci-signor-per-dimostrar.krn
!!!cenid: 15xx:1050
!!!COM: Stabile, Annibale
!!!COM-rismID: pe30009662
!!!CDT: ~1535-1595/04
!!!CNT: Italian
!!!GTL: Il primo libro de madrigali a cinque voci
!!!OTL: Signor per dimostrar
!!!OMV: 005
!!!PDT: 1586
!!!AGN:
!!!SMS-siglum: PL-GD
!!!SMS-shelfmark: Ee 2628
!!!SMS-variant:
!!!SMS-altvar:
!!!SMS-shelfwork: 005-005 G
!!!NIFC-rismSourceID: 1001203361
!!!NIFC-rismChildID: 990060531
!!!NIFC-islandoraID: pl-gd:66139
!!!URL-pdf-islandora: https://repozytorium.nifc.pl/islandora/object/pl-gd%3A66139/datastream/PDF/view
!!!URL-scan: https://polish.musicsources.pl/pl/lokalizacje/galeria/klocki-introligatorskie/673 @EN{Scan on Polish Music Sources Website} @PL{Skany w portalu Dziedzictwo Muzyki Polskiej w otwartym dostępie}
!!!IIIF:
!!!ONB-nifc: UWAGA: Canto: s. 78-89, Tenore: s. 233-245, Basso: s. 390-401, Quinto: s. 712-723. Dla głosu Alto proszę skorzystać z https://pbc.gda.pl/dlibra/doccontent?id=79410, str. 25-48. Uwaga: utwory podzielone wg spisu treści dostępnych na końcu ksiąg – proszę sprawdzać sąsiednie tytuły. Głos Quinto proszę umieszczać wg ambitusu (może się różnić w zależności od utworu).
!!!AIN: 1 alto 1 bass 2 soprn 1 tenor
!!!key: g:dor
**kern	**text	**kern	**text	**kern	**text	**kern	**text	**kern	**text
*part5	*part5	*part4	*part4	*part3	*part3	*part2	*part2	*part1	*part1
*staff5	*staff5	*staff4	*staff4	*staff3	*staff3	*staff2	*staff2	*staff1	*staff1
*I"BASSO	*	*I"TENORE	*	*I"ALTO	*	*I"CANTO	*	*I"QVINTO	*
*I'B	*	*I'T	*	*I'A	*	*I'S	*	*I'V 5	*
*Ibass	*	*Itenor	*	*Ialto	*	*Isoprn	*	*Isoprn	*
*ICvox	*	*ICvox	*	*ICvox	*	*ICvox	*	*ICvox	*
*clefF4	*	*clefC4	*	*clefC3	*	*clefC1	*	*clefC1	*
*k[b-]	*	*k[b-]	*	*k[b-]	*	*k[b-]	*	*k[b-]	*
*g:dor	*	*g:dor	*	*g:dor	*	*g:dor	*	*g:dor	*
*M2/1	*	*M2/1	*	*M2/1	*	*M2/1	*	*M2/1	*
*met(C)	*	*met(C)	*	*met(C)	*	*met(C)	*	*met(C)	*
=1-	=1-	=1-	=1-	=1-	=1-	=1-	=1-	=1-	=1-
00r	.	00r	.	1G	SI-	1r	.	2r	.
.	.	.	.	.	.	.	.	2g/	SI-
.	.	.	.	2c/	-gnor	2g/	SI-	4e/	-gnor
.	.	.	.	.	.	.	.	4g/	per
.	.	.	.	2A/	per	4cc\	-gnor	4g/	d:-
.	.	.	.	.	.	4cc\	per	4f#X/	-moſ-
=2-	=2-	=2-	=2-	=2-	=2-	=2-	=2-	=2-	=2-
!	!	!	!	!	!	!LO:N:acc=#	!	!	!
.	.	.	.	4G/	di-	4bn\	d[i]-	4g/	-trar
.	.	.	.	4g\	-moſ-	4cc\	-moſ-	4e/	qual
.	.	.	.	4f\	-trar	4dd\	-trar	8d/	en-
.	.	.	.	.	.	.	.	8e/	.
.	.	.	.	4d\	qual	4a\	qual	8fny/	.
.	.	.	.	.	.	.	.	8d/	.
.	.	.	.	4c/	en-	4cc\	en-	4e/	.
.	.	.	.	4G/	-tro	4b\	-tro	4g/	-tro
!	!	!	!	!	!	!	!	!LO:SIC:v:t=custos f	!
!	!	!	!	!	!	!	!	!LO:LB:g=original	!
.	.	.	.	2d\	ſi-	2a\	ſi-	2f#X/	ſi-
=3-	=3-	=3-	=3-	=3-	=3-	=3-	=3-	=3-	=3-
!	!	!	!	!	!	!LO:N:acc=#	!	!	!
2r	.	4r	.	4G/	-a	2bn\	-a	2g/	-a
.	.	2G/	SI-	4d\	Si-	.	.	.	.
!	!	!	!	!LO:SIC:v:t=custos e	!	!LO:SIC:v:t=custos cc	!	!	!
!	!	!	!	!LO:LB:g=original	!	!LO:LB:g=original	!	!	!
2C/	SI-	.	.	4e\	-gnor	2cc\	Si-	2g/	Si-
.	.	2c\	-gnor	4e\	per	.	.	.	.
2F\	-gnor	.	.	2.f\	di-	4cc\	-gnor	4a\	-gnor
.	.	4A/	per	.	.	4cc\	per	4a\	per
2D/	per	8F/	di-	.	.	4dd\	di-	4.a\	di-
.	.	8G/	.	.	.	.	.	.	.
.	.	8A/	.	4f\	-moſ-	4dd\	-moſ-	.	.
.	.	8F/	.	.	.	.	.	8b-\	-moſ-
=4-	=4-	=4-	=4-	=4-	=4-	=4-	=4-	=4-	=4-
4C/	di-	4G/	.	2e\	-trar	2g/	-trar	2.cc\	-trar
4C/	-moſ-	4G/	-moſ-	.	.	.	.	.	.
4AA/	-trar	4c\	-trar	2e\	qual	2a\	qual	.	.
4AA/	qual	4c\	qual	.	.	.	.	4cc\	qual`
4BB-/	en-	4F/	en-	4d\	en-	4f/	en-	4b-\	en-
4GG/	-tro	4B-\	-tro	4d\	-tro	4g/	-tro	4dd\	-tro
!	!	!LO:SIC:v:t=custos A	!	!	!	!	!	!	!
!	!	!LO:LB:g=original	!	!	!	!	!	!	!
2D/	ſi-	2A/	ſi-	2d\	ſi-	2f#X/	ſi-	2dd\	ſi-
!LO:SIC:v:t=custos GG	!	!	!	!	!	!	!	!LO:SIC:v:t=custos b	!
!LO:LB:g=original	!	!	!	!	!	!	!	!LO:LB:g=original	!
=5-	=5-	=5-	=5-	=5-	=5-	=5-	=5-	=5-	=5-
!	!	!	!	!	!	!	!	!LO:N:acc=#	!
1GG	-a	2G/	-a	2d\	-a	2g/	-a	2bn\	-a
.	.	2G/	Del	2d\	Del	2g/	Del	2b\	Del
!	!	!	!	!	!	!LO:SIC:v:t=custos g	!	!	!
!	!	!	!	!	!	!LO:LB:g=original	!	!	!
1r	.	4c\	gra-	4e\	gra-	4g/	gra-	4cc\	gra-
.	.	4.F/	-to 	4.f\	-to 	4.a\	-to 	4.cc\	-to
.	.	8F/	ani-	8f\	ani-	8a\	a[ni]-	8cc\	ani-
.	.	4G/	-mo	4d\	-mo	4g/	-mo	4b\	-mo
!	!	!	!	!LO:SIC:v:t=custos c	!	!	!	!	!
!	!	!	!	!LO:LB:g=original	!	!	!	!	!
=6-	=6-	=6-	=6-	=6-	=6-	=6-	=6-	=6-	=6-
0r	.	2A/	mio	2c/	mio	2e/	mio	2a\	mio
.	.	2F/	cal-	2f\	cal-	2cc\	cal-	2a\	cal-
.	.	4G/	-do	4d\	-do	4b-y\	-do	4g/	-do
.	.	4D/	l`af-	4d\	l`af-	4a\	l`af-	4fny/	l`af-
.	.	2A/	-fet-	2c#X/	-fet-	2a\	-fet-	2e/	-fet-
=7-	=7-	=7-	=7-	=7-	=7-	=7-	=7-	=7-	=7-
2r	.	2D/	-to	2d\	-to	2a\	-to	2f#X/	-to
!	!	!	!	!	!	!LO:N:acc=#	!	!	!
2G\	Del	4r	.	2d\	Del	2bn\	Del	2g/	Del
.	.	4d\	Del	.	.	.	.	.	.
!	!	!LO:SIC:v:t=custos c	!	!	!	!	!	!	!
!	!	!LO:LB:g=original	!	!	!	!	!	!	!
4C/	gra-	4c\	gra-	4e\	gra-	4cc\	gra-	4g/	gra-
4.F\	-to a-	4.A/	-to a-	4.f\	-to a-	4.cc\	-to a-	4.a\	-to a-
8F\	-ni-	8D/	-ni-	8f\	-ni-	8dd\	-ni-	8a\	-ni-
4G\	-mo	4G/	-mo	4d\	-mo	4b\	-mo	4g/	-mo
=8-	=8-	=8-	=8-	=8-	=8-	=8-	=8-	=8-	=8-
2D/	mio	2.A/	mio	2d\	mio	2a\	mio	2fny/	mio
2A\	cal-	.	.	2cny/	cal-	2a\	cal-	2e/	cal-
.	.	4c\	cal-	.	.	.	.	.	.
!	!	!	!	!	!	!	!	!LO:SIC:v:t=custos g	!
!	!	!	!	!	!	!	!	!LO:LB:g=original	!
4G\	-do	4B-\	-do	4d\	-do	4b-y\	-do	4g\	-do
4D/	l`af-	4A/	l`af-	4f\	l`af-	4dd\	l`af-	4a\	l`af-
!LO:SIC:v:t=custos A	!	!	!	!	!	!LO:SIC:v:t=custos cc	!	!	!
!LO:LB:g=original	!	!	!	!	!	!LO:LB:g=original	!	!	!
2A\	-fet-	2A/	-fet-	2e\	-fet-	2cc#X\	-fet-	2a\	-fet-
=9-	=9-	=9-	=9-	=9-	=9-	=9-	=9-	=9-	=9-
1D	-to	2A/	-to	2f#X\	-to	2dd\	-to	4a\	-to
.	.	.	.	.	.	.	.	4a\	Ec-
.	.	4r	.	2a\	Ec-	2dd\	Ec-	2f#X/	-co
.	.	4d\	Ec-	.	.	.	.	.	.
!	!	!LO:N:acc=#	!	!	!	!	!	!	!
1r	.	2Bn\	-co	4d\	-co	2dd\	-co	2g/	le
.	.	.	.	4d\	le	.	.	.	.
.	.	2c\	le	2.e\	no-	2ccny\	le	2.g/	no-
=10-	=10-	=10-	=10-	=10-	=10-	=10-	=10-	=10-	=10-
1r	.	1d	no-	.	.	1a	no-	.	.
.	.	.	.	4d\	.	.	.	4fny/	.
!	!	!	!	!LO:SIC:v:t=custos d	!	!	!	!	!
!	!	!	!	!LO:LB:g=original	!	!	!	!	!
.	.	.	.	2.d\	.	.	.	4f/	.
.	.	.	.	.	.	.	.	8e/	.
.	.	.	.	.	.	.	.	8d/	.
2r	.	2A\	-te	.	.	2a\	-te	1e	.
.	.	.	.	8c#X/	.	.	.	.	.
!	!	!	!	!LO:N:acc=#	!	!	!	!	!
.	.	.	.	8Bn/	.	.	.	.	.
*	*	*	*	*	*	*	*ij	*	*
2A\	Ec-	4r	.	2c#X/	.	2.a\	Ec-	.	.
*	*	*	*ij	*	*	*	*	*	*
.	.	4A/	Ec-	.	.	.	.	.	.
=11-	=11-	=11-	=11-	=11-	=11-	=11-	=11-	=11-	=11-
2F#X\	-co	2D/	-co	2d\	te	.	.	1d	-te
.	.	.	.	.	.	4a\	-co	.	.
!	!	!	!	!LO:N:acc=#	!	!	!	!	!
2G\	le	2d\	le	2Bn/	On-	2g/	le	.	.
1C	no-	1e-X	no-	1cny	-de al-	1g	no-	1r	.
=12-	=12-	=12-	=12-	=12-	=12-	=12-	=12-	=12-	=12-
2GG/	-te	2d\	-te	2Bny/	-ta-	0g	-te	2r	.
*	*	*	*Xij	*	*	*	*Xij	*	*
!	!	!LO:N:acc=#	!	!	!	!	!	!	!
2G\	On-	2Bn\	On-	2d\	-men-	.	.	2dd\	On-
!	!	!LO:SIC:v:t=custos B	!	!	!	!	!	!	!
!	!	!LO:LB:g=original	!	!	!	!	!	!	!
2G\	-de al-	2Bny\	-de	4d\	-te	.	.	2dd\	-de
.	.	.	.	4G/	fi-	.	.	.	.
2C/	-ta-	2c\	al-	4G/	-a	.	.	2ee-X\	al-
.	.	.	.	2g\	Chia-	.	.	.	.
=13-	=13-	=13-	=13-	=13-	=13-	=13-	=13-	=13-	=13-
2D/	-men-	4Bny\	-ta-	.	.	2r	.	2.dd\	-ta-
.	.	8A/	-men-	8f#X\	.	.	.	.	.
.	.	8G/	.	8e\	.	.	.	.	.
2D/	-te	4A/	.	2f#X\	.	2dd\	On-	.	.
.	.	4A/	te	.	.	.	.	4cc\	-men-
4GG/	fi-	4G/	fi-	1g	-ro	2dd\	-de al-	2b-y\	.
4GG/	-a	4G/	-a	.	.	.	.	.	.
2.G\	Chia-	2C/	Chia-	.	.	2ee\	-ta-	2cc\	-te
!	!	!	!	!	!	!	!	!LO:SIC:v:t=custos a	!
!	!	!	!	!	!	!	!	!LO:LB:g=original	!
=14-	=14-	=14-	=14-	=14-	=14-	=14-	=14-	=14-	=14-
.	.	2D/	-ro	2r	.	2.dd\	-men-	1a	ſi-
8F#X\	.	.	.	.	.	.	.	.	.
8E\	.	.	.	.	.	.	.	.	.
!LO:SIC:v:t=custos F	!	!	!	!	!	!	!	!	!
!LO:LB:g=original	!	!	!	!	!	!	!	!	!
2F#X\	.	2A/	On-	2d\	On-	.	.	.	.
.	.	.	.	.	.	4cc\	-te	.	.
1G	-ro	4.B-y\	-de al-	4.d\	-de al-	2b-\	fi-	1g	-a
.	.	8c\	-ta-	8c/	-ta-	.	.	.	.
!	!	!	!	!LO:SIC:v:t=custos B	!	!	!	!	!
!	!	!	!	!LO:LB:g=original	!	!	!	!	!
.	.	4d\	-men-	4B-y/	-men-	1g\	-a	.	.
.	.	4d\	-te	4B-/	-te	.	.	.	.
=15-	=15-	=15-	=15-	=15-	=15-	=15-	=15-	=15-	=15-
1r	.	4.c\	fi-	4.A/	fi-	.	.	1cc	Chia-
.	.	8B-\	-a	8B-/	-a	.	.	.	.
!	!	!	!	!	!	!LO:SIC:v:t=custos f	!	!	!
!	!	!	!	!	!	!LO:LB:g=original	!	!	!
.	.	2A/	Chia-	2c/	Chia-	2f#X/	Chia-	.	.
!	!	!	!	!	!	!	!	!LO:N:acc=#	!
4r	.	4G/	-ro	4d\	-ro	1g	-ro	4bn\	-ro
4.G\	quan-	4.d\	quan-	4.g\	quan-	.	.	4.b\	quan-
8G\	-to	8d\	-to	8g\	-to	.	.	8b\	-to
4E-X\	di	4G/	di	4g\	di	.	.	4cc\	di
!	!	!LO:SIC:v:t=custos A	!	!	!	!	!	!	!
!	!	!LO:LB:g=original	!	!	!	!	!	!	!
=16-	=16-	=16-	=16-	=16-	=16-	=16-	=16-	=16-	=16-
2D/	voi	4A/	voi	4fny\	voi	4r	.	4dd\	voi
.	.	4.d\	quan-	4.f\	quan-	4.dd\	quan-	4.a\	quan-
2r	.	.	.	.	.	.	.	.	.
.	.	8d\	-to	8f\	-to	8dd\	-to	8a\	-to
.	.	4B-\	di	4d\	di	4dd\	di	4g/	di
2r	.	2A/	voi	2e\	voi	2cc\	voi	2a\	voi
2BB-/	ſer-	2F/	ſer-	2f\	ſer-	2b-\	ſer-	2d/	ſer-
=17-	=17-	=17-	=17-	=17-	=17-	=17-	=17-	=17-	=17-
4C/	-bo	4c\	-bo	4e\	-bo	4g\	-bo	4e/	-bo
4D/	nel	4A/	nel	4d\	nel	4dd\	nel	4f#X/	nel
2GG/	pet-	2B-\	pet-	2d\	pet-	2dd\	pet-	2g/	pet-
1D	-to	2A/	-to	2d\	-to	1dd	-to	2f#X/	-to
.	.	2A/	S`a-	2d\	S`a-	.	.	2a\	S`a-
=18-	=18-	=18-	=18-	=18-	=18-	=18-	=18-	=18-	=18-
00r	.	2.B-\	-dem-	2.d\	-dem-	0r	.	2fny/	-dem-
.	.	.	.	.	.	.	.	2g/	-pi-
.	.	4B-\	-pi-	4d\	-pi-	.	.	.	.
!	!	!	!	!LO:SIC:v:t=custos e	!	!	!	!LO:SIC:v:t=custos a	!
!	!	!	!	!LO:LB:g=original	!	!	!	!LO:LB:g=original	!
.	.	4A/	-ra	8e\	-ra	.	.	8a\	-ra
.	.	.	.	8d\	.	.	.	8b-y\	.
.	.	4A/	la	8e\	.	.	.	8cc\	.
.	.	.	.	8f\	.	.	.	8a\	.
.	.	8G/	no-	4g\	.	.	.	4b-\	.
.	.	8A/	.	.	.	.	.	.	.
.	.	8B-\	.	4g\	la	.	.	4b-\	la
.	.	8c\	.	.	.	.	.	.	.
=19-	=19-	=19-	=19-	=19-	=19-	=19-	=19-	=19-	=19-
.	.	2d\	.	2f\	no-	1r	.	2.a\	no-
.	.	4c#X\	-bil	4e\	-bil	.	.	.	.
.	.	2d\	cor-	2f\	cor-	.	.	4a\	-bil
.	.	.	.	.	.	2r	.	4b-\	cor-
.	.	4c#\	-te-	4e\	-te-	.	.	4a\	-te-
!	!	!LO:SIC:v:t=custos B	!	!	!	!	!	!	!
!	!	!LO:LB:g=original	!	!	!	!	!	!	!
.	.	2B-\	-ſi-	2d\	-ſi-	2dd\	Di	2g/	-ſi-
=20-	=20-	=20-	=20-	=20-	=20-	=20-	=20-	=20-	=20-
2r	.	4A/	-a	2e\	-a	2cc#X\	voſ-	2a\	-a
.	.	2A/	Di	.	.	.	.	.	.
2D/	Di	.	.	2f#X\	Di	2dd\	-tra	2a\	Di
.	.	2d\	voſ-	.	.	.	.	.	.
!	!	!	!	!	!	!	!	!LO:N:acc=#	!
2G\	voſ-	.	.	1.g	voſ-	2dd\	gra-	2bn\	voſ-
.	.	4G/	-tra	.	.	.	.	.	.
2C/	-tra	1G/	gra-	.	.	2ee-X\	-tia il	2cc\	-tra
!	!	!	!	!	!	!LO:SIC:v:t=custos ee	!	!	!
!	!	!	!	!	!	!LO:LB:g=original	!	!	!
=21-	=21-	=21-	=21-	=21-	=21-	=21-	=21-	=21-	=21-
1E-X	gra-	.	.	.	.	1.ee-	gra-	1.b-y	gra-
.	.	2G/	-tia il	2g\	-tra	.	.	.	.
!LO:SIC:v:t=custos BB	!	!	!	!	!	!	!	!	!
!LO:LB:g=original	!	!	!	!	!	!	!	!	!
2BB-/	-tia il	1B-	gra-	2.fny\	gra-	.	.	.	.
1B-\	gra-	.	.	.	.	2dd\	-ue	2f/	-tia il
.	.	.	.	4B-/	-tia il	.	.	.	.
=22-	=22-	=22-	=22-	=22-	=22-	=22-	=22-	=22-	=22-
.	.	1F	-ue	1c	gra-	1ccny	mio	2.f/	gra-
2A\	-ue	.	.	.	.	.	.	.	.
.	.	.	.	.	.	.	.	4f/	-ue
2G\	mio	4r	.	2d\	-ue	2b-\	di-	2g/	mio
.	.	4B-\	il	.	.	.	.	.	.
*	*	*	*	*	*	*lig	*	*	*
*	*	*	*	*	*	*col	*	*	*
2E-X\	di-	4G/	gra-	1e-X\	mio	1cc\	-fet-	2g/	di-
.	.	4G/	-ue	.	.	.	.	.	.
!	!	!	!	!	!	!	!	!LO:SIC:v:t=custos f	!
!	!	!	!	!	!	!	!	!LO:LB:g=original	!
=23-	=23-	=23-	=23-	=23-	=23-	=23-	=23-	=23-	=23-
0Fny	-fet-	2A/	mio	.	.	.	.	0f	-fet-
.	.	2B-\	di-	2d\	di-	2.b-\	.	.	.
.	.	4cny\	-fet-	1c	-fet-	.	.	.	.
*	*	*	*	*	*	*Xlig	*	*	*
*	*	*	*	*	*	*Xcol	*	*	*
.	.	4F/	.	.	.	8a\	.	.	.
.	.	.	.	.	.	8g\	.	.	.
.	.	2f\	.	.	.	2a\	.	.	.
!	!	!	!	!LO:SIC:v:t=custos B	!	!	!	!	!
!	!	!	!	!LO:LB:g=original	!	!	!	!	!
=24-	=24-	=24-	=24-	=24-	=24-	=24-	=24-	=24-	=24-
1BB-	-to	2d\	-to	2B-/	-to	2b-\	-to	2f/	-to
.	.	2B-\	Che	2d\	Che	2b-\	Che	2f/	Che
1r	.	2F/	non	2c/	non	2a\	non	2f/	non
!	!	!LO:SIC:v:t=custos F	!	!	!	!	!	!	!
!	!	!LO:LB:g=original	!	!	!	!	!	!	!
.	.	4F/	ſi	4c/	ſi	4a\	ſi	4f/	ſi
.	.	2D/	puo	2d\	puo	2a\	puo	2f/	puo
=25-	=25-	=25-	=25-	=25-	=25-	=25-	=25-	=25-	=25-
00r	.	.	.	.	.	.	.	.	.
!	!	!	!	!	!	!LO:N:acc=#	!	!	!
.	.	4D/	Sig-	4d\	Sig-	4bn\	Sig-	4f/	Sig-
.	.	2C/	-nor	2e-X\	-nor	1cc	-nor	1g	-nor
.	.	1G	con	1d	con	.	.	.	.
!	!	!	!	!	!	!LO:N:acc=#	!	!	!
.	.	.	.	.	.	2bn\	con	2g/	con
=26-	=26-	=26-	=26-	=26-	=26-	=26-	=26-	=26-	=26-
.	.	2C/	op-	2e-\	op-	2cc\	op-	2g/	op-
.	.	2D/	-ra al	2d\	-ra al	1b-y	-ra al	2f/	-ra al
.	.	2E/	ſe-	1c	ſe-	.	.	2g/	ſe-
.	.	2F/	.	.	.	2.a\	ſe-	4f/	.
.	.	.	.	.	.	.	.	4e/	.
=27-	=27-	=27-	=27-	=27-	=27-	=27-	=27-	=27-	=27-
0r	.	1G	.	2B-/	.	.	.	1d	.
.	.	.	.	.	.	4g/	.	.	.
!	!	!	!	!	!	!LO:SIC:v:t=custos g	!	!	!
!	!	!	!	!	!	!LO:LB:g=original	!	!	!
.	.	.	.	4A/	.	1g	.	.	.
.	.	.	.	4G/	.	.	.	.	.
.	.	1D	-gno	1A	.	.	.	1d	-gno
.	.	.	.	.	.	2f#X/	-gno	.	.
=28-	=28-	=28-	=28-	=28-	=28-	=28-	=28-	=28-	=28-
1r	.	4C/	Giug-	2c/	-gno	4g/	Giug-	4e/	Giug-
.	.	8C/	-ner	.	.	8g/	-ner	8e/	-ner
.	.	8C/	di	.	.	8g/	di	8e/	di
.	.	4F/	quel-	2r	.	4a\	quel-	4f/	quel-
!	!	!	!	!	!	!LO:N:acc=#	!	!	!
.	.	4G/	-li ho-	.	.	4bn\	-li ho-	4d/	-li ho-
!	!	!	!	!	!	!	!	!LO:SIC:v:t=custos e	!
!	!	!	!	!	!	!	!	!LO:LB:g=original	!
4C/	Giug-	4G/	-nor	4c/	Giug-	4cc\	-nor	2e/	-nor
8C/	-ner	4c\	di	8c/	-ner	4g/	di	.	.
8C/	di	.	.	8eny\	di	.	.	.	.
4F\	quel-	4c\	quel-	4d\	quel-	4a\	quel-	2r	.
!	!	!LO:N:acc=#	!	!	!	!	!	!	!
4G\	-li ho-	4Bn\	-li ho-	4d\	-li ho-	4g/	-li ho-	.	.
!	!	!LO:SIC:v:t=custos c	!	!LO:SIC:v:t=custos e	!	!	!	!	!
!	!	!LO:LB:g=original	!	!LO:LB:g=original	!	!	!	!	!
=29-	=29-	=29-	=29-	=29-	=29-	=29-	=29-	=29-	=29-
1C	-nor	2c\	-nor	2e\	-nor	2g/	-nor	2r	.
.	.	2c\	che	2e\	che	2g/	che	2cc\	che
!	!	!LO:N:acc=#	!	!	!	!	!	!	!
1r	.	4Bn\	ſe-	4d\	ſe-	4g/	ſe-	4dd\	ſe-
.	.	4c\	-te	4e\	-te	4g/	-te	4cc\	-te
!	!	!	!	!	!	!	!	!LO:N:acc=#	!
.	.	2G/	deg-	4d\	deg-	4g/	deg-	2bn\	deg-
.	.	.	.	4d\	-no	4g/	-no	.	.
=30-	=30-	=30-	=30-	=30-	=30-	=30-	=30-	=30-	=30-
*	*ij	*	*	*	*	*	*	*	*
4C/	Giug-	2G/	-no	4e\	Giug-	4g/	Giug-	2cc\	-no
8C/	-ner	.	.	8e\	-ner	8g/	-ner	.	.
8C/	di	.	.	8e\	di	8g/	di	.	.
!LO:SIC:v:t=custos F	!	!	!	!	!	!LO:SIC:v:t=custos a	!	!	!
!LO:LB:g=original	!	!	!	!	!	!LO:LB:g=original	!	!	!
4F\	quel-	2r	.	4f\	quel-	4a\	quel-	2r	.
4G\	-li ho-	.	.	4d\	-li ho-	4g/	-li ho-	.	.
4C/	-nor	4c\	Giug-	4c/	-nor	2e/	-nor	4g/	Giug-
*	*Xij	*	*	*	*	*	*	*	*
4C/	di	8c\	-ner	4e\	di	.	.	8g/	-ner
.	.	8c\	di	.	.	.	.	8g/	di
4F\	quel-	4c\	quel-	4d\	quel-	2r	.	4a\	quel-
!	!	!LO:N:acc=#	!	!	!	!	!	!	!
4G\	-li ho-	4Bn\	-li ho-	4d\	-li ho-	.	.	4g/	-li ho-
=31-	=31-	=31-	=31-	=31-	=31-	=31-	=31-	=31-	=31-
2C/	-nor	2c\	-nor	2e\	-nor	2r	.	2g/	-nor
2D/	che	2A/	che	2d\	che	2a\	che	2f#X/	che
!	!	!LO:N:acc=#	!	!	!	!	!	!	!
4G\	ſe-	4Bn\	ſe-	4d\	ſe-	4g/	ſe-	4g/	ſe-
4C/	-te	4c\	-te	4e-X\	-te	4g/	-te	4g/	-te
2D/	deg-	2A/	deg-	2d\	deg-	2dd\	deg-	2f#X/	deg-
=32-	=32-	=32-	=32-	=32-	=32-	=32-	=32-	=32-	=32-
!	!	!	!	!	!	!LO:N:acc=#	!	!	!
00GG	-no.	00G	-no.	00d	-no.	00bn	-no.	00g/	-no.
=33-	=33-	=33-	=33-	=33-	=33-	=33-	=33-	=33-	=33-
.	.	.	.	.	.	.	.	.	.
=||	=||	=||	=||	=||	=||	=||	=||	=||	=||
*-	*-	*-	*-	*-	*-	*-	*-	*-	*-
!!!system-decoration: [(s1,s2,s3,s4,s5)]
!!!ENC: Filip Voros
!!!END: 2022-07-06
!!!ENC: Urszula Świątek
!!!END: 2022-07-29
!!!YEC: Copyright 2022 Narodowy Instytut Fryderyka Chopina (https://polishscores.org)
!!!YEM: License CC-BY-4.0 (https://creativecommons.org/licenses/by/4.0)
